static/drive-data/interlos_logo.svg

<?xml version="1.0" encoding="UTF-8" standalone="no"?>
<!-- Generator: Adobe Illustrator 16.0.0, SVG Export Plug-In . SVG Version: 6.00 Build 0)  -->

<svg
   xmlns:dc="http://purl.org/dc/elements/1.1/"
   xmlns:cc="http://creativecommons.org/ns#"
   xmlns:rdf="http://www.w3.org/1999/02/22-rdf-syntax-ns#"
   xmlns:svg="http://www.w3.org/2000/svg"
   xmlns="http://www.w3.org/2000/svg"
   xmlns:sodipodi="http://sodipodi.sourceforge.net/DTD/sodipodi-0.dtd"
   xmlns:inkscape="http://www.inkscape.org/namespaces/inkscape"
   version="1.1"
   id="Layer_1"
   x="0px"
   y="0px"
   width="100mm"
   height="100mm"
   viewBox="0 0 354.33071 354.33071"
   enable-background="new 0 0 1000 1000"
   xml:space="preserve"
   sodipodi:docname="interlos_logo.svg"
   inkscape:version="0.91 r13725"><metadata
     id="metadata35"><rdf:RDF><cc:Work
         rdf:about=""><dc:format>image/svg+xml</dc:format><dc:type
           rdf:resource="http://purl.org/dc/dcmitype/StillImage" /><dc:title></dc:title></cc:Work></rdf:RDF></metadata><defs
     id="defs33" /><sodipodi:namedview
     pagecolor="#ffffff"
     bordercolor="#666666"
     borderopacity="1"
     objecttolerance="10"
     gridtolerance="10"
     guidetolerance="10"
     inkscape:pageopacity="0"
     inkscape:pageshadow="2"
     inkscape:window-width="1680"
     inkscape:window-height="987"
     id="namedview31"
     showgrid="false"
     inkscape:zoom="1"
     inkscape:cx="31.856048"
     inkscape:cy="260.80507"
     inkscape:window-x="-8"
     inkscape:window-y="-8"
     inkscape:window-maximized="1"
     inkscape:current-layer="Layer_1"
     fit-margin-top="0"
     fit-margin-left="0"
     fit-margin-right="0"
     fit-margin-bottom="0"
     units="mm" /><circle
     cx="177.16536"
     cy="177.16534"
     r="177.16536"
     id="circle4"
     style="fill:#d8b55e;fill-opacity:1" /><g
     transform="matrix(0.33435795,0,0,0.33435795,7.8991967,9.9859226)"
     id="Layer_x0020_1"
     style="fill:#2d160f;fill-opacity:1;stroke-width:1.37239611"><path
       style="fill:#2d160f;fill-opacity:1;stroke-width:1.37239611"
       inkscape:connector-curvature="0"
       id="_116693816"
       d="m 174.738,866.971 431.77,0 113.274,-134.98 0,-269.599 c 137.292,-136.807 186.722,-266.056 64.107,-310.854 -45.998,-16.805 -58.903,-25.649 -77.799,5.708 -17.495,29.028 29.561,56.436 54.153,90.728 -26.552,-2.591 -89.775,-61.188 -110.407,-20.664 -20.631,40.525 53.104,63.022 69.945,89.568 -28.504,-1.287 -84.405,-55.682 -104.914,-13.801 -20.516,41.879 84.265,64.4 73.824,102.972 -5.985,30.831 -28.313,50.52 -53.629,50.52 l -266.124,0 c -27.291,0 -55.19,-46.04 -41.617,-75.778 9.535,-32.513 80.389,-40.876 69.552,-78.529 -11.816,-41.036 -46.28,-17.292 -94.199,-3.693 25.176,-23.834 79.387,-49.708 59.134,-77.691 -15.766,-21.765 -42.859,-6.229 -100.863,21.27 43.854,-41.284 63.877,-63.098 33.353,-89.126 -41.972,-35.792 -69.518,-18.408 -95.196,12.119 -19.447,23.11 -82.807,111.391 95.196,291.43 l 0.007,270.051 z m 171.514,-170.431 -0.006,-183.178 316.733,0 0,183.178 z m -48.434,112.142 48.434,-56.804 286.93,0 -50.345,56.804 -317.329,0 z" /></g></svg>

<?xml version="1.0" encoding="UTF-8" standalone="no"?>
<!-- Generator: Adobe Illustrator 16.0.0, SVG Export Plug-In . SVG Version: 6.00 Build 0)  -->

<svg
   xmlns:dc="http://purl.org/dc/elements/1.1/"
   xmlns:cc="http://creativecommons.org/ns#"
   xmlns:rdf="http://www.w3.org/1999/02/22-rdf-syntax-ns#"
   xmlns:svg="http://www.w3.org/2000/svg"
   xmlns="http://www.w3.org/2000/svg"
   xmlns:sodipodi="http://sodipodi.sourceforge.net/DTD/sodipodi-0.dtd"
   xmlns:inkscape="http://www.inkscape.org/namespaces/inkscape"
   version="1.1"
   id="Layer_1"
   x="0px"
   y="0px"
   width="947.87402"
   height="947.87402"
   viewBox="0 0 947.87402 947.87402"
   enable-background="new 0 0 1000 1000"
   xml:space="preserve"
   sodipodi:docname="interlos.svg"
   inkscape:version="0.92.1 r15371"><metadata
     id="metadata35"><rdf:RDF><cc:Work
         rdf:about=""><dc:format>image/svg+xml</dc:format><dc:type
           rdf:resource="http://purl.org/dc/dcmitype/StillImage" /><dc:title></dc:title></cc:Work></rdf:RDF></metadata><defs
     id="defs33" /><sodipodi:namedview
     pagecolor="#ffffff"
     bordercolor="#666666"
     borderopacity="1"
     objecttolerance="10"
     gridtolerance="10"
     guidetolerance="10"
     inkscape:pageopacity="0"
     inkscape:pageshadow="2"
     inkscape:window-width="1920"
     inkscape:window-height="1062"
     id="namedview31"
     showgrid="false"
     inkscape:zoom="0.5"
     inkscape:cx="652.85719"
     inkscape:cy="525.11944"
     inkscape:window-x="0"
     inkscape:window-y="0"
     inkscape:window-maximized="1"
     inkscape:current-layer="Layer_1"
     fit-margin-top="0"
     fit-margin-left="0"
     fit-margin-right="0"
     fit-margin-bottom="0" /><circle
     cx="473.93701"
     cy="473.93701"
     r="473.93701"
     id="circle2"
     style="fill:#2d160f;fill-opacity:1" /><circle
     cx="473.93701"
     cy="473.93701"
     r="418.439"
     id="circle4"
     style="fill:#d8b55e;fill-opacity:1" /><g
     transform="matrix(0.72865261,0,0,0.72865261,106.13799,109.60976)"
     id="Layer_x0020_1"
     style="fill:#2d160f;fill-opacity:1;stroke-width:1.37239611"><path
       style="fill:#2d160f;fill-opacity:1;stroke-width:1.37239611"
       inkscape:connector-curvature="0"
       id="_116693816"
       d="m 174.738,866.971 h 431.77 L 719.782,731.991 V 462.392 c 137.292,-136.807 186.722,-266.056 64.107,-310.854 -45.998,-16.805 -58.903,-25.649 -77.799,5.708 -17.495,29.028 29.561,56.436 54.153,90.728 -26.552,-2.591 -89.775,-61.188 -110.407,-20.664 -20.631,40.525 53.104,63.022 69.945,89.568 -28.504,-1.287 -84.405,-55.682 -104.914,-13.801 -20.516,41.879 84.265,64.4 73.824,102.972 -5.985,30.831 -28.313,50.52 -53.629,50.52 H 368.938 c -27.291,0 -55.19,-46.04 -41.617,-75.778 9.535,-32.513 80.389,-40.876 69.552,-78.529 -11.816,-41.036 -46.28,-17.292 -94.199,-3.693 25.176,-23.834 79.387,-49.708 59.134,-77.691 -15.766,-21.765 -42.859,-6.229 -100.863,21.27 43.854,-41.284 63.877,-63.098 33.353,-89.126 -41.972,-35.792 -69.518,-18.408 -95.196,12.119 -19.447,23.11 -82.807,111.391 95.196,291.43 l 0.007,270.051 z M 346.252,696.54 346.246,513.362 H 662.979 V 696.54 Z m -48.434,112.142 48.434,-56.804 h 286.93 l -50.345,56.804 H 265.508 Z" /></g></svg>
